src/icons/svg/ticket-approval.svg

<svg width="40px" height="44px" viewBox="0 0 40 44" version="1.1" xmlns="http://www.w3.org/2000/svg">
    <path d="M35.111704,13.5192392 C34.352135,13.5192392 33.734133,14.13184 33.734133,14.8848376 L33.734133,41.2115217 C33.734133,41.2184979 33.734133,41.2264553 33.7340781,41.2346305 C33.6857529,41.2495096 33.5908617,41.2689667 33.4243899,41.2689667 L3.16131564,41.2689667 C2.92964051,41.2689667 2.75492205,41.1106932 2.75492205,40.9007521 L2.75492205,3.25425116 C2.75492205,3.01493349 2.80726065,2.81278616 2.85223221,2.73114236 L22.9099448,2.73114236 C23.6694589,2.73114236 24.2874608,2.11854152 24.2874608,1.36554394 C24.2874608,0.612600846 23.6695138,0 22.9099448,0 L2.8129233,0 C1.18306061,0 0,1.36859604 0,3.25419662 L0,40.9006977 C0,42.6096577 1.41814434,44 3.16126068,44 L33.4243898,44 C35.2574493,44 36.4890001,42.8793328 36.4890001,41.2114672 L36.4890001,14.8848921 C36.4890001,14.1318945 35.871218,13.5192392 35.111704,13.5192392 Z M39.5969875,0.552975765 C39.0595826,0.0202746411 38.1884093,0.0202746411 37.6510043,0.552975765 L28.5081927,9.61679746 L24.4232002,5.56714629 C23.8857953,5.03444516 23.014622,5.03444516 22.477217,5.56714629 C21.939922,6.09984741 21.939922,6.96353826 22.477217,7.49629387 L27.5352011,12.5105188 C27.7932654,12.7663506 28.1433071,12.9100719 28.5081927,12.9100719 C28.8730783,12.9100719 29.22312,12.7663506 29.4811843,12.5105188 L39.5969875,2.48217788 C40.1343375,1.94936779 40.1343375,1.08567689 39.5969875,0.552975765 Z M18.6034481,16.5125783 L7.83720618,16.5125783 C7.07769216,16.5125783 6.45974515,17.1251792 6.45974515,17.8781767 C6.45974515,18.6311199 7.07769216,19.2436662 7.83720618,19.2436662 L18.6034481,19.2436662 C19.3630171,19.2436662 19.9809641,18.6311199 19.9809641,17.8781767 C19.9809641,17.1251792 19.3629621,16.5125783 18.6034481,16.5125783 Z M28.6518488,28.322232 L7.83715117,28.322232 C7.07763715,28.322232 6.45969014,28.9347782 6.45969014,29.6877759 C6.45969014,30.4407735 7.07763715,31.0533199 7.83715117,31.0533199 L28.6518488,31.0533199 C29.4114178,31.0533199 30.0294198,30.440719 30.0294198,29.6877759 C30.0294198,28.9348329 29.4114728,28.322232 28.6518488,28.322232 Z"
          id="形状"></path>
</svg>

<svg width="40" height="44" xmlns="http://www.w3.org/2000/svg"><path d="M35.112 13.52c-.76 0-1.378.612-1.378 1.365v26.35a1.08 1.08 0 0 1-.31.034H3.161c-.231 0-.406-.158-.406-.368V3.254c0-.24.052-.441.097-.523H22.91c.76 0 1.377-.612 1.377-1.365S23.67 0 22.91 0H2.813C1.183 0 0 1.369 0 3.254v37.647C0 42.61 1.418 44 3.161 44h30.263c1.833 0 3.065-1.12 3.065-2.789V14.885c0-.753-.618-1.366-1.377-1.366zM39.597.552a1.385 1.385 0 0 0-1.946 0l-9.143 9.064-4.085-4.05a1.385 1.385 0 0 0-1.946 0 1.356 1.356 0 0 0 0 1.93l5.058 5.014a1.382 1.382 0 0 0 1.946 0L39.597 2.482a1.356 1.356 0 0 0 0-1.929zm-20.994 15.96H7.837c-.76 0-1.377.612-1.377 1.365s.618 1.366 1.377 1.366h10.766c.76 0 1.378-.613 1.378-1.366 0-.753-.618-1.365-1.378-1.365zm10.049 11.81H7.837c-.76 0-1.377.612-1.377 1.365s.618 1.365 1.377 1.365h20.815c.76 0 1.377-.612 1.377-1.365s-.618-1.366-1.377-1.366z"/></svg>
